apps/16/internet-web-browser.svg

<?xml version="1.0" encoding="UTF-8" standalone="no"?>
<svg
   xmlns:dc="http://purl.org/dc/elements/1.1/"
   xmlns:cc="http://creativecommons.org/ns#"
   xmlns:rdf="http://www.w3.org/1999/02/22-rdf-syntax-ns#"
   xmlns:svg="http://www.w3.org/2000/svg"
   xmlns="http://www.w3.org/2000/svg"
   xmlns:xlink="http://www.w3.org/1999/xlink"
   width="16px"
   height="16px"
   id="svg3935"
   version="1.1">
  <defs
     id="defs3937">
    <linearGradient
       id="linearGradient3707-319-631-407-324-3-8">
      <stop
         id="stop3760-7-3"
         style="stop-color:#185f9a;stop-opacity:1;"
         offset="0" />
      <stop
         id="stop3762-8-4"
         style="stop-color:#599ec9;stop-opacity:1;"
         offset="1" />
    </linearGradient>
    <linearGradient
       xlink:href="#linearGradient4011"
       id="linearGradient3071"
       gradientUnits="userSpaceOnUse"
       gradientTransform="matrix(0.35135136,0,0,0.35135136,-17.203671,-0.90930013)"
       x1="71.204407"
       y1="6.2375584"
       x2="71.204407"
       y2="44.340794" />
    <linearGradient
       id="linearGradient4011">
      <stop
         id="stop4013"
         style="stop-color:#ffffff;stop-opacity:1;"
         offset="0" />
      <stop
         offset="0.507761"
         style="stop-color:#ffffff;stop-opacity:0.23529412;"
         id="stop4015" />
      <stop
         id="stop4017"
         style="stop-color:#ffffff;stop-opacity:0.15686275;"
         offset="0.83456558" />
      <stop
         id="stop4019"
         style="stop-color:#ffffff;stop-opacity:0.39215687;"
         offset="1" />
    </linearGradient>
    <linearGradient
       id="linearGradient2867-449-88-871-390-598-476-591-434-148-57-177-3-8">
      <stop
         id="stop3750-8-9"
         style="stop-color:#90dbec;stop-opacity:1;"
         offset="0" />
      <stop
         id="stop3752-3-2"
         style="stop-color:#55c1ec;stop-opacity:1;"
         offset="0.26238" />
      <stop
         id="stop3754-7-2"
         style="stop-color:#3689e6;stop-opacity:1;"
         offset="0.704952" />
      <stop
         id="stop3756-9-3"
         style="stop-color:#2b63a0;stop-opacity:1;"
         offset="1" />
    </linearGradient>
    <radialGradient
       r="19.99999"
       fy="8.4497671"
       fx="5.7800279"
       cy="8.4497671"
       cx="5.7800279"
       gradientTransform="matrix(0,0.89892574,-0.95095622,-1.6561642e-8,16.035401,-6.0146846)"
       gradientUnits="userSpaceOnUse"
       id="radialGradient3931"
       xlink:href="#linearGradient2867-449-88-871-390-598-476-591-434-148-57-177-3-8" />
    <linearGradient
       y2="3.8990016"
       x2="24"
       y1="44"
       x1="24"
       gradientTransform="matrix(0.38465107,0,0,0.38465106,-1.231625,-1.2316257)"
       gradientUnits="userSpaceOnUse"
       id="linearGradient3933"
       xlink:href="#linearGradient3707-319-631-407-324-3-8" />
    <linearGradient
       id="linearGradient3707-319-631-407-324-3-8-4">
      <stop
         id="stop3760-7-3-9"
         style="stop-color:#185f9a;stop-opacity:1;"
         offset="0" />
      <stop
         id="stop3762-8-4-5"
         style="stop-color:#599ec9;stop-opacity:1;"
         offset="1" />
    </linearGradient>
    <linearGradient
       x1="71.204407"
       y1="6.2375584"
       x2="71.204407"
       y2="44.340794"
       id="linearGradient3012"
       xlink:href="#linearGradient4011"
       gradientUnits="userSpaceOnUse"
       gradientTransform="matrix(0.72972969,0,0,0.72972969,-10.896211,-24.214937)" />
    <linearGradient
       xlink:href="#linearGradient3957"
       id="linearGradient3132"
       gradientUnits="userSpaceOnUse"
       gradientTransform="matrix(0.49999981,0,0,0.49999981,-3.9999942,-3.9991006)"
       x1="24"
       y1="22"
       x2="24"
       y2="26" />
    <linearGradient
       id="linearGradient3957">
      <stop
         id="stop3959"
         style="stop-color:#ffffff;stop-opacity:1"
         offset="0" />
      <stop
         id="stop3961"
         style="stop-color:#c1c1c1;stop-opacity:1"
         offset="1" />
    </linearGradient>
    <linearGradient
       xlink:href="#linearGradient3957"
       id="linearGradient3138"
       gradientUnits="userSpaceOnUse"
       gradientTransform="matrix(0.36121768,0,0,0.36121768,-0.66908965,-0.7800466)"
       x1="21.013996"
       y1="25.433903"
       x2="22.805599"
       y2="27.343702" />
    <linearGradient
       xlink:href="#linearGradient4168"
       id="linearGradient3141"
       gradientUnits="userSpaceOnUse"
       gradientTransform="matrix(0.36121768,0,0,0.36121768,-0.66908965,-0.7800466)"
       x1="27.92535"
       y1="15.149301"
       x2="33.447899"
       y2="22.986004" />
    <linearGradient
       id="linearGradient4168">
      <stop
         id="stop4170"
         style="stop-color:#f8b17e;stop-opacity:1"
         offset="0" />
      <stop
         id="stop4172"
         style="stop-color:#e35d4f;stop-opacity:1"
         offset="0.23208089" />
      <stop
         id="stop4174"
         style="stop-color:#c6262e;stop-opacity:1"
         offset="0.5908742" />
      <stop
         id="stop4176"
         style="stop-color:#690b54;stop-opacity:1"
         offset="1" />
    </linearGradient>
    <linearGradient
       id="linearGradient2867-449-88-871-390-598-476-591-434-148-57-177-3-8-1">
      <stop
         id="stop3750-8-9-4"
         style="stop-color:#90dbec;stop-opacity:1"
         offset="0" />
      <stop
         id="stop3752-3-2-1"
         style="stop-color:#42baea;stop-opacity:1"
         offset="0.26238" />
      <stop
         id="stop3754-7-2-1"
         style="stop-color:#3689e6;stop-opacity:1"
         offset="0.704952" />
      <stop
         id="stop3756-9-3-9"
         style="stop-color:#2b63a0;stop-opacity:1"
         offset="1" />
    </linearGradient>
    <radialGradient
       cx="99.157013"
       cy="186.17059"
       r="62.769119"
       fx="99.157013"
       fy="186.17059"
       id="radialGradient3043"
       xlink:href="#linearGradient3820-7-2-2"
       gradientUnits="userSpaceOnUse"
       gradientTransform="matrix(0.17524541,0,0,0.05575992,24.073056,-3.5918612)" />
    <linearGradient
       id="linearGradient3820-7-2-2">
      <stop
         id="stop3822-2-6-36"
         style="stop-color:#3d3d3d;stop-opacity:1"
         offset="0" />
      <stop
         id="stop3864-8-7-6"
         style="stop-color:#686868;stop-opacity:0.49803922"
         offset="0.5" />
      <stop
         id="stop3824-1-2-4"
         style="stop-color:#686868;stop-opacity:0"
         offset="1" />
    </linearGradient>
  </defs>
  <metadata
     id="metadata3940">
    <rdf:RDF>
      <cc:Work
         rdf:about="">
        <dc:format>image/svg+xml</dc:format>
        <dc:type
           rdf:resource="http://purl.org/dc/dcmitype/StillImage" />
        <dc:title />
      </cc:Work>
    </rdf:RDF>
  </metadata>
  <g
     id="layer1">
    <path
       style="color:#000000;fill:url(#radialGradient3931);fill-opacity:1;fill-rule:nonzero;stroke:url(#linearGradient3933);stroke-width:0.99999994000000003;stroke-linecap:round;stroke-linejoin:round;stroke-miterlimit:4;stroke-opacity:1;stroke-dasharray:none;stroke-dashoffset:0;marker:none;visibility:visible;display:inline;overflow:visible;enable-background:accumulate"
       id="path2555-7"
       d="m 8.000001,0.49999997 c -4.138241,0 -7.50000103,3.36175853 -7.50000103,7.49999993 C 0.49999997,12.138242 3.86176,15.500001 8.000001,15.5 12.13824,15.5 15.500004,12.138242 15.5,7.9999999 15.5,3.8617585 12.13824,0.49999997 8.000001,0.49999997 z" />
    <path
       style="opacity:0.5;color:#000000;fill:none;stroke:url(#linearGradient3071);stroke-width:0.99999994;stroke-linecap:round;stroke-linejoin:round;stroke-miterlimit:4;stroke-opacity:1;stroke-dasharray:none;stroke-dashoffset:0;marker:none;visibility:visible;display:inline;overflow:visible;enable-background:accumulate"
       id="path8655-6"
       d="M 14.5,7.999769 C 14.5,11.589737 11.589636,14.5 8.0000824,14.5 4.4101993,14.5 1.5,11.589703 1.5,7.999769 1.5,4.4099697 4.4101993,1.5000003 8.0000824,1.5000003 11.589636,1.5000003 14.5,4.4099697 14.5,7.999769 l 0,0 z" />
    <path
       transform="matrix(0.51068707,0,0,0.51068707,-0.17085765,-0.28181571)"
       style="color:#000000;display:inline;overflow:visible;visibility:visible;opacity:0.05;fill:#000000;fill-opacity:1;fill-rule:nonzero;stroke:none;stroke-width:1;marker:none;enable-background:accumulate"
       id="path3166"
       d="m 24.935547,6.8496094 a 1.1520853,1.1520853 0 0 0 -0.654297,0.25 l -10,7.9999996 a 1.1520853,1.1520853 0 0 0 -0.181641,0.181641 l -7.9999996,10 A 1.1520853,1.1520853 0 0 0 7.71875,26.900391 l 10,-8 a 1.1520853,1.1520853 0 0 0 0.181641,-0.181641 l 8,-10 A 1.1520853,1.1520853 0 0 0 24.935547,6.8496094 Z" />
    <path
       d="M 12.597685,3.8024664 7.4954854,7.8887412 3.4092114,12.990941 9.2226311,9.4535418 Z"
       id="path3022-96"
       style="color:#000000;display:inline;overflow:visible;visibility:visible;opacity:0.15;fill:#000000;fill-opacity:1;fill-rule:nonzero;stroke:none;stroke-width:1;marker:none;enable-background:accumulate" />
    <path
       d="M 7,7 9,9 12.597685,3.2916272 Z"
       id="path3022"
       style="fill:url(#linearGradient3141);fill-opacity:1;stroke:none" />
    <path
       d="M 7,7 9,9 3.4025844,12.486728 Z"
       id="path3022-9"
       style="color:#000000;display:inline;overflow:visible;visibility:visible;fill:url(#linearGradient3138);fill-opacity:1;fill-rule:nonzero;stroke:none;stroke-width:0.75;marker:none;enable-background:accumulate" />
    <path
       d="m 9.2499998,8.2507071 a 1.25,1.25 0 0 1 -2.4999996,0 1.25,1.25 0 1 1 2.4999996,0 z"
       id="path3955-1-5"
       style="color:#000000;display:inline;overflow:visible;visibility:visible;opacity:0.2;fill:#000000;fill-opacity:1;fill-rule:nonzero;stroke:none;stroke-width:1.33333337;marker:none;enable-background:accumulate" />
    <path
       d="m 7.7539794,8.153537 a 0.36121768,0.36121768 0 0 1 0.245234,-0.6255763 l 9.2e-4,0.3612166 z"
       id="path3953"
       style="color:#000000;display:inline;overflow:visible;visibility:visible;opacity:0.05;fill:#ffffff;fill-opacity:1;fill-rule:nonzero;stroke:none;stroke-width:1;marker:none;enable-background:accumulate" />
    <path
       d="m 8.9999996,8.2508944 a 1,1 0 0 1 -1.9999992,0 1,1 0 1 1 1.9999992,0 z"
       id="path3955-1"
       style="color:#000000;display:inline;overflow:visible;visibility:visible;opacity:0.2;fill:#000000;fill-opacity:1;fill-rule:nonzero;stroke:none;stroke-width:1.33333337;marker:none;enable-background:accumulate" />
    <path
       d="m 8.9999996,8.0008944 a 1,1 0 0 1 -1.9999992,0 1,1 0 1 1 1.9999992,0 z"
       id="path3955"
       style="color:#000000;display:inline;overflow:visible;visibility:visible;fill:url(#linearGradient3132);fill-opacity:1;fill-rule:nonzero;stroke:none;stroke-width:1;marker:none;enable-background:accumulate" />
  </g>
</svg>

<svg xmlns="http://www.w3.org/2000/svg" xmlns:xlink="http://www.w3.org/1999/xlink" viewBox="0 0 16 16"><defs><linearGradient id="c"><stop offset="0" stop-color="#185f9a"/><stop offset="1" stop-color="#599ec9"/></linearGradient><linearGradient xlink:href="#a" id="h" gradientUnits="userSpaceOnUse" gradientTransform="translate(-17.204 -.91) scale(.35135)" x1="71.204" y1="6.238" x2="71.204" y2="44.341"/><linearGradient id="a"><stop offset="0" stop-color="#fff"/><stop offset=".508" stop-color="#fff" stop-opacity=".235"/><stop offset=".835" stop-color="#fff" stop-opacity=".157"/><stop offset="1" stop-color="#fff" stop-opacity=".392"/></linearGradient><linearGradient id="b"><stop offset="0" stop-color="#90dbec"/><stop offset=".262" stop-color="#55c1ec"/><stop offset=".705" stop-color="#3689e6"/><stop offset="1" stop-color="#2b63a0"/></linearGradient><radialGradient r="20" fy="8.45" fx="5.78" cy="8.45" cx="5.78" gradientTransform="matrix(0 .89893 -.95096 0 16.035 -6.015)" gradientUnits="userSpaceOnUse" id="f" xlink:href="#b"/><linearGradient y2="3.899" x2="24" y1="44" x1="24" gradientTransform="translate(-1.232 -1.232) scale(.38465)" gradientUnits="userSpaceOnUse" id="g" xlink:href="#c"/><linearGradient xlink:href="#d" id="k" gradientUnits="userSpaceOnUse" gradientTransform="matrix(.5 0 0 .5 -4 -4)" x1="24" y1="22" x2="24" y2="26"/><linearGradient id="d"><stop offset="0" stop-color="#fff"/><stop offset="1" stop-color="#c1c1c1"/></linearGradient><linearGradient xlink:href="#d" id="j" gradientUnits="userSpaceOnUse" gradientTransform="translate(-.67 -.78) scale(.36122)" x1="21.014" y1="25.434" x2="22.806" y2="27.344"/><linearGradient xlink:href="#e" id="i" gradientUnits="userSpaceOnUse" gradientTransform="translate(-.67 -.78) scale(.36122)" x1="27.925" y1="15.149" x2="33.448" y2="22.986"/><linearGradient id="e"><stop offset="0" stop-color="#f8b17e"/><stop offset=".232" stop-color="#e35d4f"/><stop offset=".591" stop-color="#c6262e"/><stop offset="1" stop-color="#690b54"/></linearGradient></defs><path d="M8 .5A7.505 7.505 0 0 0 .5 8c0 4.138 3.362 7.5 7.5 7.5s7.5-3.362 7.5-7.5S12.138.5 8 .5z" color="#000" fill="url(#f)" stroke="url(#g)" stroke-linecap="round" stroke-linejoin="round" overflow="visible"/><path d="M14.5 8a6.5 6.5 0 1 1-13 0 6.5 6.5 0 0 1 13 0z" opacity=".5" color="#000" fill="none" stroke="url(#h)" stroke-linecap="round" stroke-linejoin="round" overflow="visible"/><path d="M12.563 3.216a.588.588 0 0 0-.334.128L7.12 7.43a.588.588 0 0 0-.092.092L2.944 12.63a.588.588 0 0 0 .827.826L8.88 9.37a.588.588 0 0 0 .093-.092L13.06 4.17a.588.588 0 0 0-.494-.953z" color="#000" overflow="visible" opacity=".05"/><path d="M12.598 3.802L7.495 7.89l-4.086 5.1 5.81-3.536z" color="#000" overflow="visible" opacity=".15"/><path d="M7 7l2 2 3.598-5.708z" fill="url(#i)"/><path d="M7 7l2 2-5.597 3.487z" color="#000" overflow="visible" fill="url(#j)"/><path d="M9.25 8.25a1.25 1.25 0 0 1-2.5 0 1.25 1.25 0 1 1 2.5 0z" color="#000" overflow="visible" opacity=".2"/><path d="M7.754 8.154A.36.36 0 0 1 8 7.528v.36z" color="#000" overflow="visible" opacity=".05" fill="#fff"/><path d="M9 8.25a1 1 0 0 1-2 0 1 1 0 1 1 2 0z" color="#000" overflow="visible" opacity=".2"/><path d="M9 8a1 1 0 0 1-2 0 1 1 0 1 1 2 0z" color="#000" overflow="visible" fill="url(#k)"/></svg>
